assets/Face with monocle/Flat/face_with_monocle_flat.svg

<svg width="32" height="32" viewBox="0 0 32 32" fill="none" xmlns="http://www.w3.org/2000/svg">
<path d="M15.9989 29.9978C25.3333 29.9978 29.9978 23.7303 29.9978 15.9989C29.9978 8.26751 25.3333 2 15.9989 2C6.66443 2 2 8.26751 2 15.9989C2 23.7303 6.66443 29.9978 15.9989 29.9978Z" fill="#FFB02E"/>
<path d="M22 17.5C25.0376 17.5 27.5 15.0376 27.5 12C27.5 8.96243 25.0376 6.5 22 6.5C18.9624 6.5 16.5 8.96243 16.5 12C16.5 15.0376 18.9624 17.5 22 17.5Z" fill="white"/>
<path d="M10.5 17C12.9853 17 15 14.9853 15 12.5C15 10.0147 12.9853 8 10.5 8C8.01472 8 6 10.0147 6 12.5C6 14.9853 8.01472 17 10.5 17Z" fill="white"/>
<path d="M28 12C28 8.68629 25.3137 6 22 6C18.6863 6 16 8.68629 16 12C16 15.3137 18.6863 18 22 18C24.087 18 25.9251 16.9345 27 15.3178V25.5C27 25.7761 27.2239 26 27.5 26C27.7761 26 28 25.7761 28 25.5L28 12ZM27 12L27 12.0044C26.9976 14.7638 24.76 17 22 17C19.2386 17 17 14.7614 17 12C17 9.23858 19.2386 7 22 7C24.7614 7 27 9.23858 27 12Z" fill="#9B9B9B"/>
<path d="M18.7774 4.91603C18.9968 4.76975 19.4144 4.53651 19.9183 4.34121C20.4248 4.14489 20.9851 4 21.5001 4C22.015 4 22.5754 4.14489 23.0819 4.34121C23.5857 4.53651 24.0033 4.76975 24.2227 4.91603C24.4525 5.0692 24.7629 5.00711 24.9161 4.77735C25.0693 4.54759 25.0072 4.23715 24.7774 4.08397C24.4968 3.89691 24.0144 3.63016 23.4433 3.40879C22.8748 3.18845 22.1851 3 21.5001 3C20.815 3 20.1254 3.18845 19.5569 3.40879C18.9857 3.63016 18.5033 3.89691 18.2227 4.08397C17.9929 4.23715 17.9309 4.54759 18.084 4.77735C18.2372 5.00711 18.5476 5.0692 18.7774 4.91603Z" fill="#402A32"/>
<path d="M7.91608 6.77735C8.18315 6.37675 9.10989 5.5 10.5001 5.5C11.8902 5.5 12.817 6.37675 13.084 6.77735C13.2372 7.00711 13.5476 7.0692 13.7774 6.91603C14.0072 6.76285 14.0693 6.45241 13.9161 6.22265C13.5165 5.62325 12.3099 4.5 10.5001 4.5C8.69021 4.5 7.48363 5.62325 7.08403 6.22265C6.93085 6.45241 6.99294 6.76285 7.2227 6.91603C7.45247 7.0692 7.7629 7.00711 7.91608 6.77735Z" fill="#402A32"/>
<path d="M15 19.75C14.1647 19.75 13.7708 20.1434 13.7071 20.2071C13.3166 20.5976 12.6834 20.5976 12.2929 20.2071C11.9024 19.8166 11.9024 19.1834 12.2929 18.7929C12.5625 18.5233 13.4353 17.75 15 17.75C17.3992 17.75 19.2344 19.2326 19.8944 20.5528C20.1414 21.0468 19.9412 21.6474 19.4472 21.8944C18.9532 22.1414 18.3526 21.9412 18.1056 21.4472C17.7656 20.7674 16.6008 19.75 15 19.75Z" fill="#402A32"/>
<path d="M18 11C18 9.34274 19.3427 8 21 8C22.6573 8 24 9.34274 24 11C24 12.6573 22.6573 14 21 14C19.3427 14 18 12.6573 18 11Z" fill="#402A32"/>
<path d="M7 11.5C7 9.84274 8.34274 8.5 10 8.5C11.6573 8.5 13 9.84274 13 11.5C13 13.1573 11.6573 14.5 10 14.5C8.34274 14.5 7 13.1573 7 11.5Z" fill="#402A32"/>
</svg>

<svg xmlns="http://www.w3.org/2000/svg" width="32" height="32" fill="none"><path fill="#FFB02E" d="M15.999 29.998c9.334 0 13.999-6.268 13.999-14 0-7.73-4.665-13.998-14-13.998C6.665 2 2 8.268 2 15.999c0 7.731 4.664 13.999 13.999 13.999Z"/><path fill="#fff" d="M22 17.5a5.5 5.5 0 1 0 0-11 5.5 5.5 0 0 0 0 11ZM10.5 17a4.5 4.5 0 1 0 0-9 4.5 4.5 0 0 0 0 9Z"/><path fill="#9B9B9B" d="M28 12a6 6 0 1 0-1 3.318V25.5a.5.5 0 0 0 1 0V12Zm-1 0v.004a5 5 0 1 1-10 0A5 5 0 0 1 27 12Z"/><path fill="#402A32" d="M18.777 4.916c.22-.146.637-.38 1.141-.575C20.425 4.145 20.985 4 21.5 4c.515 0 1.075.145 1.582.341.504.196.921.429 1.14.575a.5.5 0 0 0 .555-.832 7.29 7.29 0 0 0-1.334-.675C22.875 3.189 22.185 3 21.5 3s-1.375.188-1.943.409a7.287 7.287 0 0 0-1.334.675.5.5 0 0 0 .554.832ZM7.916 6.777C8.183 6.377 9.11 5.5 10.5 5.5c1.39 0 2.317.877 2.584 1.277a.5.5 0 0 0 .832-.554c-.4-.6-1.606-1.723-3.416-1.723-1.81 0-3.016 1.123-3.416 1.723a.5.5 0 1 0 .832.554ZM15 19.75c-.835 0-1.23.393-1.293.457a1 1 0 0 1-1.414-1.414c.27-.27 1.142-1.043 2.707-1.043 2.4 0 4.234 1.483 4.894 2.803a1 1 0 1 1-1.788.894c-.34-.68-1.505-1.697-3.106-1.697ZM18 11a3 3 0 1 1 5.999-.001A3 3 0 0 1 18 11ZM7 11.5a3 3 0 1 1 5.999-.001A3 3 0 0 1 7 11.5Z"/></svg>
